Sources/FrostedUI/Resources/Icons.xcassets/thumbUpFilled12.imageset/thumb-up-filled-12.svg

<svg width="12" height="12" viewBox="0 0 12 12" fill="none" xmlns="http://www.w3.org/2000/svg" data-fui-icon="true">
  <path
    fill-rule="evenodd"
    clip-rule="evenodd"
    d="M2.98209 4.625H1.875C1.18466 4.625 0.625 5.18463 0.625 5.875V9.625C0.625 10.3154 1.18466 10.875 1.875 10.875H8.711C9.82295 10.875 10.7681 10.0628 10.9354 8.96349L11.3539 6.21348C11.5611 4.85168 10.507 3.625 9.12945 3.625H7.38404L7.5369 2.6446C7.70272 1.58108 6.87708 0.625 5.8055 0.625C5.33856 0.625 4.9085 0.885463 4.69367 1.30255L2.98209 4.625ZM2.625 9.375V6.125H2.125V9.375H2.625Z"
    fill="currentColor"
  />
</svg>

<svg xmlns="http://www.w3.org/2000/svg" width="12" height="12" fill="none" data-fui-icon="true" viewBox="0 0 12 12"><path fill="currentColor" fill-rule="evenodd" d="M2.982 4.625H1.875c-.69 0-1.25.56-1.25 1.25v3.75c0 .69.56 1.25 1.25 1.25h6.836a2.25 2.25 0 0 0 2.224-1.912l.419-2.75a2.25 2.25 0 0 0-2.225-2.588H7.384l.153-.98A1.752 1.752 0 0 0 5.806.625c-.467 0-.897.26-1.112.678zm-.357 4.75v-3.25h-.5v3.25z" clip-rule="evenodd"/></svg>
